;START_OF_HEADER
;HEADER_VERSION:0.1
;FLAVOR:Griffin
;GENERATOR.NAME:Cura_SteamEngine
;GENERATOR.VERSION:4.13.1
;GENERATOR.BUILD_DATE:2022-01-28
;TARGET_MACHINE.NAME:Ultimaker 3
;EXTRUDER_TRAIN.0.INITIAL_TEMPERATURE:210
;EXTRUDER_TRAIN.0.MATERIAL.VOLUME_USED:29450
;EXTRUDER_TRAIN.0.MATERIAL.GUID:506c9f0d-e3aa-4bd4-b2d2-23e2425b1aa9
;EXTRUDER_TRAIN.0.NOZZLE.DIAMETER:0.4
;EXTRUDER_TRAIN.0.NOZZLE.NAME:AA 0.4
;BUILD_PLATE.TYPE:glass
;BUILD_PLATE.INITIAL_TEMPERATURE:60
;PRINT.TIME:10775
;PRINT.GROUPS:1
;PRINT.SIZE.MIN.X:9
;PRINT.SIZE.MIN.Y:6
;PRINT.SIZE.MIN.Z:0.27
;PRINT.SIZE.MAX.X:164.51
;PRINT.SIZE.MAX.Y:160.51
;PRINT.SIZE.MAX.Z:47.07
;END_OF_HEADER
;Generated with Cura_SteamEngine 4.13.1
T0
M82 ;absolute extrusion mode

G92 E0
M109 S210
G0 F15000 X9 Y6 Z2
G280
G1 F1500 E-6.5
;LAYER_COUNT:235
;LAYER:0
M107
M204 S625
M205 X30 Y30
G1 F600 Z2.27
G0 F4285.7 X88.968 Y51.042 Z2.27
M204 S500
M205 X20 Y20
;TYPE:SKIRT
G1 F600 Z0.27
G1 F1500 E0
G1 F1200 X89.264 Y50.632 E0.00899
G1 X89.621 Y50.273 E0.01799
G1 X90.03 Y49.974 E0.02699
G1 X90.481 Y49.744 E0.03599
G1 X90.963 Y49.587 E0.04501
G1 X91.62 Y49.5 E0.05679
G1 X92.03 Y49.49 E0.06408
G1 X160.639 Y49.49 E1.28367
G1 X161.337 Y49.5 E1.29608
G1 X161.841 Y49.547 E1.30508
G1 X162.332 Y49.673 E1.31409
G1 X162.796 Y49.875 E1.32308
G1 X163.223 Y50.147 E1.33208
G1 X163.602 Y50.482 E1.34107
G1 X163.924 Y50.874 E1.35009
G1 X164.18 Y51.311 E1.35909
G1 X164.364 Y51.782 E1.36808
G1 X164.472 Y52.277 E1.37709
G1 X164.509 Y52.94 E1.38889
G1 X164.51 Y101.608 E2.25401
G1 X164.5 Y102.336 E2.26696
G1 X164.453 Y102.84 E2.27595
G1 X164.327 Y103.331 E2.28496
G1 X164.126 Y103.796 E2.29397
G1 X163.854 Y104.223 E2.30297
G1 X163.519 Y104.602 E2.31196
G1 X163.128 Y104.924 E2.32096
G1 X162.703 Y105.174 E2.32973
G1 X162.092 Y105.473 E2.34182
G1 X160.644 Y106.155 E2.37027
G1 X158.185 Y107.398 E2.41925
G1 X155.771 Y108.706 E2.46806
G1 X153.4 Y110.079 E2.51676
G1 X151.106 Y111.495 E2.56468
G1 X148.782 Y113.022 E2.61411
G1 X146.544 Y114.587 E2.66266
G1 X144.343 Y116.217 E2.71134
G1 X142.211 Y117.893 E2.75955
G1 X140.094 Y119.656 E2.80852
G1 X138.038 Y121.47 E2.85726
G1 X136.048 Y123.329 E2.90567
G1 X134.085 Y125.267 E2.9547
G1 X132.212 Y127.225 E3.00287
G1 X130.367 Y129.268 E3.0518
G1 X128.585 Y131.354 E3.10057
G1 X126.867 Y133.486 E3.14924
G1 X125.198 Y135.682 E3.19827
G1 X123.628 Y137.874 E3.2462
G1 X122.082 Y140.166 E3.29535
G1 X120.627 Y142.461 E3.34365
G1 X119.229 Y144.809 E3.39223
G1 X117.887 Y147.216 E3.44121
G1 X116.628 Y149.634 E3.48967
G1 X115.431 Y152.099 E3.53838
G1 X113.892 Y155.557 E3.60567
G1 X113.628 Y156.13 E3.61688
G1 X113.359 Y156.615 E3.62674
G1 X113.012 Y157.148 E3.63805
G1 X112.654 Y157.609 E3.64842
G1 X112.247 Y158.064 E3.65927
G1 X111.731 Y158.551 E3.67189
G1 X111.218 Y158.96 E3.68355
G1 X110.729 Y159.288 E3.69401
G1 X110.198 Y159.592 E3.70489
G1 X109.509 Y159.911 E3.71839
G1 X108.957 Y160.112 E3.72883
G1 X108.427 Y160.262 E3.73862
G1 X107.812 Y160.39 E3.74979
G1 X107.23 Y160.464 E3.76022
G1 X106.958 Y160.481 E3.76506
G1 X105.49 Y160.51 E3.79116
G1 X63.64 Y160.51 E4.53509
G1 X62.942 Y160.5 E4.5475
G1 X62.438 Y160.453 E4.55649
G1 X61.947 Y160.327 E4.5655
G1 X61.483 Y160.125 E4.5745
G1 X61.056 Y159.853 E4.5835
G1 X60.677 Y159.518 E4.59249
G1 X60.355 Y159.126 E4.60151
G1 X60.099 Y158.689 E4.61051
G1 X59.915 Y158.218 E4.6195
G1 X59.807 Y157.723 E4.62851
G1 X59.77 Y157.016 E4.64109
G1 X59.77 Y118.359 E5.32826
G1 X59.78 Y117.659 E5.3407
G1 X59.827 Y117.155 E5.3497
G1 X59.953 Y116.665 E5.35869
G1 X60.155 Y116.2 E5.36771
G1 X60.427 Y115.773 E5.3767
G1 X60.783 Y115.372 E5.38624
G1 X62.667 Y113.405 E5.43465
G1 X64.508 Y111.372 E5.48341
G1 X66.293 Y109.283 E5.53225
G1 X68.018 Y107.147 E5.58106
G1 X69.668 Y104.98 E5.62947
G1 X71.263 Y102.758 E5.67809
G1 X72.789 Y100.499 E5.72655
G1 X74.272 Y98.165 E5.77571
G1 X75.669 Y95.823 E5.82418
G1 X77 Y93.441 E5.87269
G1 X78.274 Y90.998 E5.92166
G1 X79.467 Y88.547 E5.97012
G1 X80.6 Y86.042 E6.01899
G1 X81.662 Y83.506 E6.06787
G1 X82.639 Y80.965 E6.11626
G1 X83.543 Y78.41 E6.16443
G1 X84.388 Y75.783 E6.21349
G1 X85.158 Y73.138 E6.26246
G1 X85.838 Y70.528 E6.3104
G1 X86.463 Y67.822 E6.35977
G1 X86.996 Y65.156 E6.4081
G1 X87.462 Y62.446 E6.45698
G1 X87.849 Y59.729 E6.50576
G1 X88.156 Y57.03 E6.55405
G1 X88.389 Y54.313 E6.60252
G1 X88.435 Y53.5 E6.617
G1 X88.509 Y52.477 E6.63523
G1 X88.586 Y51.977 E6.64422
G1 X88.74 Y51.494 E6.65324
G1 X88.968 Y51.042 E6.66224
M204 S625
M205 X30 Y30
G1 F1500 E0.16224
G1 F600 Z2.27
;MESH:angulares.stl
G0 F4285.7 X80.559 Y141.339 Z2.27
M204 S500
M205 X20 Y20
;TYPE:WALL-INNER
G1 F600 Z0.27
G1 F1500 E6.66224
G1 F1200 X81.415 Y141.341 E6.67528
G1 X82.232 Y141.163 E6.68802
G1 X82.985 Y140.814 E6.70066
G1 X83.652 Y140.309 E6.71341
G1 X84.197 Y139.672 E6.72618
G1 X84.587 Y138.933 E6.73892
G1 X84.812 Y138.128 E6.75165
G1 X84.859 Y137.297 E6.76433
G1 X84.725 Y136.475 E6.77702
G1 X84.423 Y135.71 E6.78955
G1 X83.959 Y135.016 E6.80227
G1 X83.343 Y134.427 E6.81526
G1 X82.629 Y133.997 E6.82796
G1 X81.832 Y133.726 E6.84079
G1 X81.006 Y133.636 E6.85344
G1 X80.177 Y133.725 E6.86615
G1 X79.381 Y133.993 E6.87895
G1 X78.667 Y134.421 E6.89163
G1 X78.06 Y134.993 E6.90434
G1 X77.594 Y135.675 E6.91692
G1 X77.282 Y136.445 E6.92958
G1 X77.142 Y137.286 E6.94257
G1 X77.187 Y138.125 E6.95537
G1 X77.411 Y138.928 E6.96808
G1 X77.8 Y139.666 E6.98079
G1 X78.337 Y140.3 E6.99345
G1 X78.991 Y140.802 E7.00601
G1 X79.76 Y141.159 E7.01893
G1 X80.559 Y141.339 E7.03141
M204 S625
M205 X30 Y30
G0 F4285.7 X80.6 Y140.979
M204 S500
M205 X20 Y20
G1 F1200 X81.377 Y140.981 E7.04324
G1 X82.117 Y140.82 E7.05478
G1 X82.799 Y140.504 E7.06624
G1 X83.404 Y140.046 E7.0778
G1 X83.897 Y139.469 E7.08936
G1 X84.251 Y138.799 E7.10091
G1 X84.455 Y138.069 E7.11246
G1 X84.497 Y137.316 E7.12395
G1 X84.376 Y136.571 E7.13545
G1 X84.102 Y135.878 E7.1468
G1 X83.682 Y135.249 E7.15832
G1 X83.123 Y134.715 E7.1701
G1 X82.476 Y134.325 E7.18161
G1 X81.754 Y134.08 E7.19323
G1 X81.006 Y133.998 E7.2047
G1 X80.255 Y134.079 E7.2162
G1 X79.533 Y134.322 E7.22781
G1 X78.885 Y134.71 E7.23932
G1 X78.335 Y135.228 E7.25083
G1 X77.913 Y135.846 E7.26223
G1 X77.631 Y136.543 E7.27369
G1 X77.504 Y137.306 E7.28548
G1 X77.544 Y138.066 E7.29707
G1 X77.747 Y138.794 E7.30859
G1 X78.1 Y139.463 E7.32011
G1 X78.587 Y140.038 E7.33159
G1 X79.179 Y140.492 E7.34296
G1 X79.877 Y140.816 E7.35468
G1 X80.6 Y140.979 E7.36598
M204 S625
M205 X30 Y30
G0 F4285.7 X80.644 Y140.589
M204 S500
M205 X20 Y20
;TYPE:WALL-OUTER
G1 F1200 X81.336 Y140.591 E7.37828
G1 X81.992 Y140.448 E7.39021
G1 X82.597 Y140.168 E7.40206
G1 X83.135 Y139.761 E7.41406
G1 X83.572 Y139.249 E7.42602
G1 X83.887 Y138.654 E7.43799
G1 X84.068 Y138.005 E7.44997
G1 X84.105 Y137.337 E7.46186
G1 X83.998 Y136.675 E7.47378
G1 X83.755 Y136.06 E7.48553
G1 X83.382 Y135.501 E7.49748
G1 X82.885 Y135.027 E7.50969
G1 X82.311 Y134.681 E7.5216
G1 X81.669 Y134.463 E7.53365
G1 X81.006 Y134.39 E7.54551
G1 X80.339 Y134.462 E7.55744
G1 X79.697 Y134.678 E7.56948
G1 X79.122 Y135.023 E7.5814
G1 X78.633 Y135.483 E7.59333
G1 X78.259 Y136.031 E7.60512
G1 X78.009 Y136.649 E7.61697
G1 X77.896 Y137.328 E7.62921
G1 X77.931 Y138.003 E7.64122
G1 X78.111 Y138.649 E7.65315
G1 X78.425 Y139.243 E7.66509
G1 X78.858 Y139.754 E7.677
G1 X79.382 Y140.156 E7.68873
G1 X80.003 Y140.445 E7.70091
G1 X80.644 Y140.589 E7.71259
M204 S625
M205 X30 Y30
G0 F4285.7 X80.844 Y140.589
G0 X80.842 Y141.051
G1 F1500 E1.21259
G1 F600 Z2.27
G0 F4285.7 X80.842 Y141.339 Z2.27
G0 X100.559 Y141.339
M204 S500
M205 X20 Y20
;TYPE:WALL-INNER
G1 F600 Z0.27
G1 F1500 E7.71259
G1 F1200 X101.415 Y141.341 E7.72563
G1 X102.232 Y141.163 E7.73837
G1 X102.985 Y140.814 E7.75102
G1 X103.652 Y140.309 E7.76376
G1 X104.197 Y139.672 E7.77654
G1 X104.587 Y138.933 E7.78927
G1 X104.812 Y138.128 E7.802
G1 X104.859 Y137.297 E7.81469
G1 X104.725 Y136.475 E7.82738
G1 X104.423 Y135.71 E7.83991
G1 X103.959 Y135.016 E7.85263
G1 X103.343 Y134.427 E7.86561
G1 X102.629 Y133.997 E7.87831
G1 X101.832 Y133.726 E7.89114
G1 X101.006 Y133.636 E7.9038
G1 X100.177 Y133.725 E7.9165
G1 X99.381 Y133.993 E7.9293
G1 X98.667 Y134.421 E7.94198
G1 X98.06 Y134.993 E7.95469
G1 X97.594 Y135.675 E7.96728
G1 X97.282 Y136.445 E7.97994
G1 X97.142 Y137.286 E7.99293
G1 X97.187 Y138.125 E8.00573
G1 X97.411 Y138.928 E8.01843
G1 X97.8 Y139.666 E8.03114
G1 X98.337 Y140.3 E8.0438
G1 X98.991 Y140.802 E8.05636
G1 X99.76 Y141.159 E8.06928
G1 X100.559 Y141.339 E8.08176
M204 S625
M205 X30 Y30
G0 F4285.7 X100.6 Y140.979
M204 S500
M205 X20 Y20
G1 F1200 X101.377 Y140.981 E8.0936
G1 X102.117 Y140.82 E8.10514
G1 X102.799 Y140.504 E8.11659
G1 X103.404 Y140.046 E8.12815
G1 X103.897 Y139.469 E8.13971
G1 X104.251 Y138.799 E8.15126
G1 X104.455 Y138.069 E8.16281
G1 X104.497 Y137.316 E8.1743
G1 X104.376 Y136.571 E8.1858
G1 X104.102 Y135.878 E8.19715
G1 X103.682 Y135.249 E8.20868
G1 X103.123 Y134.715 E8.22046
G1 X102.476 Y134.325 E8.23197
G1 X101.754 Y134.08 E8.24358
G1 X101.006 Y133.998 E8.25505
G1 X100.255 Y134.079 E8.26656
G1 X99.533 Y134.322 E8.27817
G1 X98.885 Y134.71 E8.28967
G1 X98.335 Y135.228 E8.30119
G1 X97.913 Y135.846 E8.31259
G1 X97.631 Y136.543 E8.32404
G1 X97.504 Y137.306 E8.33583
G1 X97.544 Y138.066 E8.34742
G1 X97.747 Y138.794 E8.35894
G1 X98.1 Y139.463 E8.37047
G1 X98.587 Y140.038 E8.38195
G1 X99.179 Y140.492 E8.39331
G1 X99.877 Y140.816 E8.40504
G1 X100.6 Y140.979 E8.41633
M204 S625
M205 X30 Y30
G0 F4285.7 X100.644 Y140.589
M204 S500
M205 X20 Y20
;TYPE:WALL-OUTER
G1 F1200 X101.336 Y140.591 E8.42863
G1 X101.992 Y140.448 E8.44057
G1 X102.597 Y140.168 E8.45242
G1 X103.135 Y139.761 E8.46441
G1 X103.572 Y139.249 E8.47638
G1 X103.887 Y138.654 E8.48834
G1 X104.068 Y138.005 E8.50032
G1 X104.105 Y137.337 E8.51221
G1 X103.998 Y136.675 E8.52413
G1 X103.755 Y136.06 E8.53589
G1 X103.382 Y135.501 E8.54783
G1 X102.885 Y135.027 E8.56004
G1 X102.311 Y134.681 E8.57196
G1 X101.669 Y134.463 E8.58401
G1 X101.006 Y134.39 E8.59586
G1 X100.339 Y134.462 E8.60779
G1 X99.697 Y134.678 E8.61983
G1 X99.122 Y135.023 E8.63175
G1 X98.633 Y135.483 E8.64368
G1 X98.259 Y136.031 E8.65548
G1 X98.009 Y136.649 E8.66733
G1 X97.896 Y137.328 E8.67956
G1 X97.931 Y138.003 E8.69158
G1 X98.111 Y138.649 E8.7035
G1 X98.425 Y139.243 E8.71544
G1 X98.858 Y139.754 E8.72735
G1 X99.382 Y140.156 E8.73909
G1 X100.003 Y140.445 E8.75126
G1 X100.644 Y140.589 E8.76294
M204 S625
M205 X30 Y30
G0 F4285.7 X100.844 Y140.589
G0 X100.842 Y141.051
G1 F1500 E2.26294
G1 F600 Z2.27
G0 F4285.7 X100.842 Y141.339 Z2.27
G0 X106.45 Y156.34
M204 S500
M205 X20 Y20
;TYPE:WALL-INNER
G1 F600 Z0.27
G1 F1500 E8.76294
G1 F1200 X63.939 Y156.34 E9.41066
G1 X63.94 Y118.66 E9.98478
G1 X106.453 Y118.66 E10.63253
G1 X107.124 Y118.715 E10.64279
G1 X107.684 Y118.849 E10.65156
G1 X108.256 Y119.088 E10.66101
G1 X108.757 Y119.396 E10.66997
G1 X109.205 Y119.779 E10.67895
G1 X109.607 Y120.248 E10.68836
G1 X109.921 Y120.765 E10.69757
G1 X110.153 Y121.326 E10.70682
G1 X110.287 Y121.886 E10.7156
G1 X110.34 Y122.537 E10.72555
G1 X110.34 Y152.458 E11.18144
G1 X110.288 Y153.114 E11.19147
G1 X110.155 Y153.675 E11.20025
G1 X109.912 Y154.257 E11.20986
G1 X109.608 Y154.752 E11.21871
G1 X109.221 Y155.206 E11.2278
G1 X108.756 Y155.603 E11.23712
G1 X108.228 Y155.924 E11.24653
G1 X107.678 Y156.152 E11.25561
G1 X107.111 Y156.287 E11.26449
G1 X106.45 Y156.34 E11.27459
M204 S625
M205 X30 Y30
G0 F4285.7 X106.466 Y156.7
M204 S500
M205 X20 Y20
G1 F1200 X63.579 Y156.7 E11.92804
G1 X63.58 Y118.3 E12.51312
G1 X106.47 Y118.3 E13.16662
G1 X107.18 Y118.358 E13.17747
G1 X107.796 Y118.506 E13.18713
G1 X108.424 Y118.768 E13.19749
G1 X108.969 Y119.103 E13.20724
G1 X109.461 Y119.523 E13.2171
G1 X109.896 Y120.032 E13.2273
G1 X110.245 Y120.605 E13.23752
G1 X110.496 Y121.214 E13.24756
G1 X110.644 Y121.831 E13.25723
G1 X110.7 Y122.52 E13.26776
G1 X110.7 Y152.473 E13.72414
G1 X110.645 Y153.168 E13.73476
G1 X110.498 Y153.785 E13.74443
G1 X110.232 Y154.424 E13.75497
G1 X109.899 Y154.966 E13.76466
G1 X109.477 Y155.461 E13.77457
G1 X108.968 Y155.896 E13.78478
G1 X108.393 Y156.246 E13.79503
G1 X107.79 Y156.495 E13.80497
G1 X107.166 Y156.644 E13.81475
G1 X106.466 Y156.7 E13.82545
M204 S625
M205 X30 Y30
G0 F4285.7 X106.484 Y157.09
M204 S500
M205 X20 Y20
;TYPE:WALL-OUTER
G1 F1200 X63.189 Y157.09 E14.59506
G1 X63.19 Y117.91 E15.29152
G1 X106.49 Y117.91 E16.06122
G1 X107.238 Y117.971 E16.07456
G1 X107.919 Y118.135 E16.08701
G1 X108.6 Y118.419 E16.10013
G1 X109.201 Y118.788 E16.11267
G1 X109.738 Y119.246 E16.12521
G1 X110.212 Y119.802 E16.1382
G1 X110.596 Y120.431 E16.1513
G1 X110.867 Y121.089 E16.16395
G1 X111.031 Y121.773 E16.17645
G1 X111.09 Y122.5 E16.18942
G1 X111.09 Y152.491 E16.72254
G1 X111.032 Y153.224 E16.73561
G1 X110.869 Y153.909 E16.74812
G1 X110.581 Y154.6 E16.76143
G1 X110.214 Y155.198 E16.7739
G1 X109.754 Y155.738 E16.78651
G1 X109.198 Y156.212 E16.7995
G1 X108.572 Y156.594 E16.81254
G1 X107.911 Y156.867 E16.82525
G1 X107.223 Y157.031 E16.83782
G1 X106.484 Y157.09 E16.851
M204 S625
M205 X30 Y30
G0 F4285.7 X106.284 Y157.09
G0 X106.284 Y156.628
G0 X106.444 Y155.96
M204 S500
M205 X20 Y20
;TYPE:SKIN
G1 F1200 X64.319 Y155.96 E17.57735
G1 X64.32 Y119.04 E18.21395
G1 X106.446 Y119.04 E18.94032
G1 X107.057 Y119.09 E18.95089
G1 X107.567 Y119.212 E18.95993
G1 X108.087 Y119.429 E18.96964
G1 X108.529 Y119.701 E18.97859
G1 X108.935 Y120.049 E18.98781
G1 X109.299 Y120.472 E18.99743
G1 X109.58 Y120.936 E19.00679
G1 X109.79 Y121.442 E19.01623
G1 X109.912 Y121.953 E19.02529
G1 X109.96 Y122.537 E19.0354
G1 X109.96 Y152.458 E19.55132
G1 X109.913 Y153.047 E19.5615
G1 X109.792 Y153.558 E19.57056
G1 X109.571 Y154.088 E19.58046
G1 X109.303 Y154.524 E19.58928
G1 X108.951 Y154.936 E19.59863
G1 X108.534 Y155.293 E19.60809
G1 X108.053 Y155.585 E19.6178
G1 X107.562 Y155.789 E19.62696
G1 X107.044 Y155.912 E19.63614
G1 X106.444 Y155.96 E19.64652
M204 S625
M205 X30 Y30
G1 F1500 E13.14652
G1 F600 Z2.27
G0 F4285.7 X106.454 Y156.109 Z2.27
G0 X102.354 Y141.526
M204 S500
M205 X20 Y20
G1 F600 Z0.27
G1 F1500 E19.64652
G1 F1200 X103.182 Y141.141 E19.66227
G1 X103.914 Y140.587 E19.6781
G1 X104.513 Y139.887 E19.69398
G1 X104.942 Y139.074 E19.70983
G1 X105.189 Y138.191 E19.72564
G1 X105.241 Y137.276 E19.74144
G1 X105.094 Y136.374 E19.7572
G1 X104.761 Y135.533 E19.7728
G1 X104.252 Y134.771 E19.7886
G1 X103.575 Y134.123 E19.80476
G1 X102.79 Y133.651 E19.82055
G1 X101.915 Y133.353 E19.83649
G1 X101.006 Y133.254 E19.85226
G1 X100.095 Y133.351 E19.86805
G1 X99.221 Y133.646 E19.88396
G1 X98.437 Y134.117 E19.89973
G1 X97.769 Y134.744 E19.91553
G1 X97.257 Y135.494 E19.93118
G1 X96.914 Y136.341 E19.94694
G1 X96.76 Y137.265 E19.96309
G1 X96.809 Y138.187 E19.97901
G1 X97.056 Y139.069 E19.99481
G1 X97.483 Y139.88 E20.01061
G1 X98.073 Y140.577 E20.02636
G1 X98.793 Y141.129 E20.042
G1 X99.637 Y141.52 E20.05804
G1 X100.516 Y141.719 E20.07358
G1 X101.455 Y141.721 E20.08977
G1 X102.354 Y141.526 E20.10563
M204 S625
M205 X30 Y30
G1 F1500 E13.60563
G1 F600 Z2.27
G0 F4285.7 X102.322 Y141.375 Z2.27
G0 X84.513 Y139.887
M204 S500
M205 X20 Y20
G1 F600 Z0.27
G1 F1500 E20.10563
G1 F1200 X84.942 Y139.074 E20.12148
G1 X85.189 Y138.191 E20.13729
G1 X85.241 Y137.276 E20.15309
G1 X85.094 Y136.374 E20.16885
G1 X84.761 Y135.533 E20.18445
G1 X84.252 Y134.771 E20.20025
G1 X83.575 Y134.123 E20.21641
G1 X82.79 Y133.651 E20.2322
G1 X81.915 Y133.353 E20.24814
G1 X81.006 Y133.254 E20.26391
G1 X80.095 Y133.351 E20.2797
G1 X79.221 Y133.646 E20.29561
G1 X78.437 Y134.117 E20.31138
G1 X77.769 Y134.744 E20.32718
G1 X77.257 Y135.494 E20.34283
G1 X76.914 Y136.341 E20.35859
G1 X76.76 Y137.265 E20.37474
